dhis-2/dhis-support/dhis-support-system/src/main/resources/SVGs/hiv_self_test_positive.svg

<?xml version="1.0" encoding="UTF-8" standalone="no"?>
<!-- Created with Inkscape (http://www.inkscape.org/) -->
<svg id="svg8" xmlns:rdf="http://www.w3.org/1999/02/22-rdf-syntax-ns#" xmlns="http://www.w3.org/2000/svg" xmlns:osb="http://www.openswatchbook.org/uri/2009/osb" height="48" width="48" version="1.1" xmlns:cc="http://creativecommons.org/ns#" viewBox="0 0 12.7 12.7" xmlns:dc="http://purl.org/dc/elements/1.1/">
 <title id="title4753">UIO-icon</title>
 <metadata id="metadata5">
  <rdf:RDF>
   <cc:Work rdf:about="">
    <dc:format>image/svg+xml</dc:format>
    <dc:type rdf:resource="http://purl.org/dc/dcmitype/StillImage"/>
    <dc:title>UIO-icon</dc:title>
    <dc:creator>
     <cc:Agent>
      <dc:title>Joaquín Urbano</dc:title>
     </cc:Agent>
    </dc:creator>
    <dc:rights>
     <cc:Agent>
      <dc:title>GPL</dc:title>
     </cc:Agent>
    </dc:rights>
   </cc:Work>
  </rdf:RDF>
 </metadata>
 <g id="layer1" transform="translate(0,-284.3)" fill="#333">
  <path id="rect1844" d="m25.953 4.0039s-2.9397 3.0179-2.9395 4.7812c-0.0002222 1.7633 1.3264 3.1911 2.9629 3.1914 1.637 0.00051817 2.9612-1.4275 2.9609-3.1914 0.0002222-1.764-2.7752-4.8663-2.9844-4.7812zm0.0625 0.69141c0.6614 0.72141 2.4333 2.8765 2.3848 4.2402-0.025047 1.0898-0.86219 2.5705-2.4199 2.5195-1.5738 0.046726-2.4405-1.7106-2.4531-2.7617-0.014-1.1238 1.765-3.2006 2.488-3.998zm0.64062 4.2344c-0.50482 0-0.91406 0.40924-0.91406 0.91406-1e-8 0.50482 0.40924 0.91406 0.91406 0.91406s0.91406-0.40924 0.91406-0.91406c1e-8 -0.50482-0.40924-0.91406-0.91406-0.91406zm-3.9023 1.4805c-0.00052551 0.13361-0.00047655 0.35311 0 0.51367l-13.696 7.135-5.059 2.611v23.33h8.3848l9.8555-5.707c0.90277-0.56774 1.8268-1.3563 1.1074-2.4766-0.617-0.834-1.556-1.791-1.927-2.527l-7.9707 4.1289-0.24219-0.45312 8.4355-4.3555 0.28516-0.14844c1.4773-0.93118 0.94268-2.4396-1.2773-5.541l-8.2012 4.248-0.24219-0.45312 8.666-4.4746c2.457-1.2163 1.7714-1.6349-0.85742-6.4531l-10.596 5.4766-0.24219-0.45312 11.041-5.6914 4.8418-2.5234 1.8027-0.91406c2.2141-1.3275 2.7309-3.1882 1.8457-4.4805 0.00934-0.012232 0.020918-0.032914 0.03125-0.046875-0.019504 0.015214-0.032127 0.032944-0.054688 0.046875-2.0202 2.0824-4.7202 1.8367-5.9277-0.25586 0.001743-0.29304-0.004056-0.4971-0.003906-0.53516zm-18.755 4.295v5.383l4.3613-2.254c-1.4852-1.431-2.9309-2.512-4.3613-3.129zm21.736 4.9121v8.7676h0.74023v-4.2031h5.0098v4.2031h0.74609v-8.768h-0.74609v3.9375h-5.009v-3.9375zm8.8809 0v8.7676h0.742v-8.768zm2.1934 0 3.2637 8.7676h0.71094l3.2637-8.7676h-0.8125l-2.7598 7.6836-0.052734 0.1875-0.048828-0.1875-2.7578-7.6836z" transform="matrix(.26458 0 0 .26458 0 284.3)"/>
 </g>
</svg>

<svg width="48" height="48" viewBox="0 0 48 48" fill="none" xmlns="http://www.w3.org/2000/svg">
<path d="M25.9527 4.00391C25.9527 4.00391 23.013 7.02177 23.0132 8.78505C23.013 10.5483 24.3396 11.9761 25.9761 11.9764C27.6131 11.9769 28.9372 10.5489 28.9369 8.78505C28.9372 7.02107 26.1618 3.91881 25.9526 4.00391H25.9527ZM26.0152 4.69531C26.6766 5.41671 28.4485 7.57178 28.4 8.93546C28.3749 10.0252 27.5378 11.5059 25.9801 11.4549C24.4063 11.5017 23.5396 9.74435 23.527 8.69326C23.513 7.56948 25.292 5.4927 26.015 4.69531H26.0152ZM26.6558 8.92966C26.151 8.92966 25.7417 9.3389 25.7417 9.84371C25.7417 10.3485 26.151 10.7578 26.6558 10.7578C27.1606 10.7578 27.5698 10.3485 27.5698 9.84371C27.5698 9.3389 27.1606 8.92966 26.6558 8.92966ZM22.7535 10.4101C22.753 10.5437 22.7531 10.7632 22.7535 10.9238L9.05772 18.0587L3.99878 20.6697V43.9994H12.3835L22.2389 38.2925C23.1416 37.7247 24.0656 36.9362 23.3462 35.8159C22.7292 34.9819 21.7903 34.0249 21.4193 33.2889L13.4487 37.4178L13.2065 36.9647L21.6419 32.6092L21.927 32.4608C23.4043 31.5296 22.8697 30.0212 20.6497 26.9198L12.4486 31.1678L12.2065 30.7147L20.8723 26.2401C23.3293 25.0238 22.6437 24.6053 20.0149 19.7871L9.41907 25.2636L9.17688 24.8105L20.2177 19.1192L25.0595 16.5958L26.8622 15.6818C29.0762 14.3543 29.593 12.4936 28.7078 11.2013C28.7172 11.1891 28.7288 11.1684 28.7391 11.1545C28.7196 11.1697 28.707 11.1874 28.6844 11.2013C26.6642 13.2837 23.9643 13.038 22.7568 10.9455C22.7585 10.6524 22.7527 10.4484 22.7529 10.4103L22.7535 10.4101ZM3.99878 14.7051V20.088L8.36002 17.834C6.87484 16.4031 5.42916 15.3221 3.99878 14.7051ZM25.7345 19.6171V28.3846H26.4747V24.1816H31.4845V28.3846H32.2305V19.6167H31.4845V23.5542H26.4755V19.6167L25.7345 19.6171ZM34.6153 19.6171V28.3846H35.3573V19.6167L34.6153 19.6171ZM36.8087 19.6171L40.0723 28.3846H40.7833L44.0469 19.6171H43.2344L40.4747 27.3006L40.4219 27.4881L40.3731 27.3006L37.6153 19.6171H36.8087Z" fill="#333333"/>
</svg>
